package/converter/svg/duotone/headphones.svg

<svg xmlns="http://www.w3.org/2000/svg" viewBox="0 0 512 512"><!-- Font Awesome Pro 6.0.0-alpha2 by @fontawesome - https://fontawesome.com License - https://fontawesome.com/license (Commercial License) --><defs><style>.fa-secondary{opacity:.4}</style></defs><path d="M511.975 400.125C511.975 400.039 512 399.961 512 399.875V400C512 400.045 511.975 400.08 511.975 400.125ZM0 399.875V400C0 400.045 0.025 400.08 0.025 400.125C0.025 400.039 0 399.961 0 399.875ZM256 32C112.906 32 4.562 151.125 0 288V336.125C0 302.654 20.637 273.99 49.803 262.021C62.66 159.615 150.16 80.201 256 80.188C361.84 80.201 449.34 159.615 462.197 262.021C491.363 273.99 512 302.654 512 336.125V288C507.438 151.125 399.094 32 256 32Z" class="fa-secondary"/><path d="M80 256C35.889 256 0 291.945 0 336.125V399.875C0 444.055 35.889 480 80 480C106.467 480 128 458.438 128 431.938V304.062C128 277.562 106.467 256 80 256ZM432 256C405.533 256 384 277.562 384 304.062V431.938C384 458.438 405.533 480 432 480C476.111 480 512 444.055 512 399.875V336.125C512 291.945 476.111 256 432 256Z" class="fa-primary"/></svg>

<svg xmlns="http://www.w3.org/2000/svg" viewBox="0 0 512 512"><!--! Font Awesome Pro 6.6.0 by @fontawesome - https://fontawesome.com License - https://fontawesome.com/license (Commercial License) Copyright 2024 Fonticons, Inc. --><defs><style>.fa-secondary{opacity:.4}</style></defs><path class="fa-secondary" d="M0 288l0 48c0-1 0-2.1 .1-3.1s.1-2.1 .2-3.1c.2-2 .4-4.1 .7-6.1c.6-4 1.5-7.9 2.7-11.7c2.4-7.6 5.8-14.7 10.2-21.1c8.8-12.8 21.2-23 35.7-29C62.4 159.4 149.9 80 256 80s193.6 79.4 206.4 182c29.1 12 49.6 40.6 49.6 74l0-48C512 146.6 397.4 32 256 32S0 146.6 0 288z"/><path class="fa-primary" d="M80 256c-44.2 0-80 35.8-80 80l0 64c0 44.2 35.8 80 80 80c26.5 0 48-21.5 48-48l0-128c0-26.5-21.5-48-48-48zm352 0c-26.5 0-48 21.5-48 48l0 128c0 26.5 21.5 48 48 48c44.2 0 80-35.8 80-80l0-64c0-44.2-35.8-80-80-80z"/></svg>
